source/images/illustrations/capp-learning/capp-learning-persoonlijk.svg

<svg width="200" height="200" viewBox="0 0 200 200" fill="none" xmlns="http://www.w3.org/2000/svg">
<g clip-path="url(#clip0)">
<path opacity="0.1" d="M56.4239 168.477C110.788 198.747 196.558 168.421 190.001 108.775C187.141 82.7553 175.338 68.6793 156.902 50.2936C118.967 12.4618 66.963 12.3438 25.7783 27.3798C-15.4064 42.4157 2.05948 138.207 56.4239 168.477Z" fill="#009CFF"/>
<g clip-path="url(#clip1)">
<path d="M169.287 111.4C169.287 111.4 166.809 121.343 156.899 121.343C146.989 121.343 144.511 111.4 144.511 111.4C144.511 111.4 117.259 116.337 117.259 143.714H196.539C196.539 116.434 169.287 111.4 169.287 111.4Z" fill="#4FC3F7"/>
<path d="M156.899 126.314C144.511 126.314 144.511 111.4 144.511 111.4V96.4857H169.286V111.4C169.286 111.4 169.286 126.314 156.899 126.314Z" fill="#FF9800"/>
<path d="M184.152 81.5714C184.152 84.3206 181.932 86.5429 179.197 86.5429C176.459 86.5429 174.242 84.3206 174.242 81.5714C174.242 78.8247 176.459 76.6 179.197 76.6C181.932 76.6 184.152 78.8247 184.152 81.5714ZM139.556 81.5714C139.556 78.8247 137.337 76.6 134.601 76.6C131.861 76.6 129.646 78.8247 129.646 81.5714C129.646 84.3206 131.861 86.5429 134.601 86.5429C137.337 86.5429 139.556 84.3206 139.556 81.5714Z" fill="#FFA726"/>
<path d="M179.197 66.657C179.197 47.6785 134.601 54.3005 134.601 66.657V84.0571C134.601 96.4136 144.581 106.429 156.899 106.429C169.215 106.429 179.197 96.4136 179.197 84.0571V66.657Z" fill="#FFB74D"/>
<path d="M156.899 44.2856C141.848 44.2856 132.124 56.5302 132.124 71.6285V77.3108L137.079 81.5714V69.1428L166.809 59.1999L176.719 69.1428V81.5714L181.674 77.2412V71.6285C181.674 61.6235 179.103 51.7029 166.809 49.257L164.332 44.2856H156.899Z" fill="#424242"/>
<path d="M164.331 81.5714C164.331 80.2018 165.441 79.0857 166.809 79.0857C168.177 79.0857 169.286 80.2018 169.286 81.5714C169.286 82.941 168.177 84.0571 166.809 84.0571C165.441 84.0571 164.331 82.941 164.331 81.5714ZM144.511 81.5714C144.511 82.941 145.621 84.0571 146.989 84.0571C148.356 84.0571 149.466 82.941 149.466 81.5714C149.466 80.2018 148.356 79.0857 146.989 79.0857C145.621 79.0857 144.511 80.2018 144.511 81.5714Z" fill="#784719"/>
<path d="M156.899 126.314C169.287 126.314 173.61 116.545 174.118 112.822C171.254 111.768 169.287 111.4 169.287 111.4C169.287 111.4 166.809 121.343 156.899 121.343C146.989 121.343 144.511 111.4 144.511 111.4C144.511 111.4 142.542 111.76 139.675 112.807C140.181 116.523 144.511 126.314 156.899 126.314Z" fill="#01579B"/>
</g>
<g clip-path="url(#clip2)">
<path d="M34 66L30 60.5V55H38V60.5L34 66Z" fill="#FF9800"/>
<path d="M41.7678 51.645C42.7212 51.645 43.494 50.8526 43.494 49.875C43.494 48.8975 42.7212 48.105 41.7678 48.105C40.8145 48.105 40.0416 48.8975 40.0416 49.875C40.0416 50.8526 40.8145 51.645 41.7678 51.645Z" fill="#FFA726"/>
<path d="M26.2322 51.645C27.1855 51.645 27.9584 50.8526 27.9584 49.875C27.9584 48.8975 27.1855 48.105 26.2322 48.105C25.2788 48.105 24.506 48.8975 24.506 49.875C24.506 50.8526 25.2788 51.645 26.2322 51.645Z" fill="#FFA726"/>
<path d="M42 44.3665C42 37.4156 26 39.7936 26 44.3665C26 45.3726 26 49.7626 26 50.7687C26 55.3416 29.5556 59 34 59C38.4444 59 42 55.3416 42 50.7687C42 49.7626 42 45.3726 42 44.3665Z" fill="#FFB74D"/>
<path d="M34 37C28.51 37 25 41.2467 25 46.5333C25 47.2267 25 48.5267 25 48.5267L26.8 50V45.6667L37.6 42.2L41.2 45.6667V50L43 48.5267C43 48.5267 43 47.2267 43 46.5333C43 43.0667 42.1 39.6 37.6 38.7333L36.7 37H34Z" fill="#FF5722"/>
<path d="M37.4525 50.76C37.9291 50.76 38.3155 50.3638 38.3155 49.875C38.3155 49.3862 37.9291 48.99 37.4525 48.99C36.9758 48.99 36.5894 49.3862 36.5894 49.875C36.5894 50.3638 36.9758 50.76 37.4525 50.76Z" fill="#784719"/>
<path d="M30.5477 50.76C31.0243 50.76 31.4108 50.3638 31.4108 49.875C31.4108 49.3862 31.0243 48.99 30.5477 48.99C30.071 48.99 29.6846 49.3862 29.6846 49.875C29.6846 50.3638 30.071 50.76 30.5477 50.76Z" fill="#784719"/>
<path d="M38.375 60L34 60.9231L29.625 60C29.625 60 20 61.8461 20 72H48C48 61.8461 38.375 60 38.375 60Z" fill="#CFD8DC"/>
<path d="M33 63.75L32 72H36L35 63.75L36 62.8333L34 61L32 62.8333L33 63.75Z" fill="#3F51B5"/>
</g>
<path d="M38.5066 100.988C38.5066 98.0832 41.2208 95.7281 44.5684 95.7281C47.916 95.7281 50.6302 98.0832 50.6302 100.988H38.5066Z" fill="#2196F3"/>
<path d="M46.0845 94.2252H43.0536V96.4796C43.0536 96.4796 43.3021 97.231 44.538 97.231C45.7738 97.231 46.0845 96.4796 46.0845 96.4796V94.2252Z" fill="#EF8D3C"/>
<path d="M47.2204 93.4737C47.8482 93.4737 48.357 92.969 48.357 92.3465C48.357 91.724 47.8482 91.2193 47.2204 91.2193C46.5927 91.2193 46.0839 91.724 46.0839 92.3465C46.0839 92.969 46.5927 93.4737 47.2204 93.4737Z" fill="#EF8D3C"/>
<path d="M41.9163 93.4737C42.544 93.4737 43.0528 92.969 43.0528 92.3465C43.0528 91.724 42.544 91.2193 41.9163 91.2193C41.2885 91.2193 40.7797 91.724 40.7797 92.3465C40.7797 92.969 41.2885 93.4737 41.9163 93.4737Z" fill="#EF8D3C"/>
<path d="M47.5992 89.8787C47.5992 88.2209 46.2398 88.2134 44.5683 88.2134C42.8967 88.2134 41.5374 88.2209 41.5374 89.8787C41.5374 90.1394 41.5374 92.4607 41.5374 92.7222C41.5374 94.3799 42.8967 95.7281 44.5683 95.7281C46.2398 95.7281 47.5992 94.3799 47.5992 92.7222C47.5992 92.4615 47.5992 90.1402 47.5992 89.8787Z" fill="#FFB74D"/>
<path d="M44.4024 86.7105C42.5558 86.8751 40.7797 88.1609 40.7797 90.8992V91.9708L41.5374 92.7223V90.4679L46.3186 88.8139L47.5992 90.4679V92.7223L48.3569 91.9708V91.0668C48.3569 89.2527 48.2546 87.9069 46.0837 87.462L45.7163 86.7105H44.4024Z" fill="#424242"/>
<path d="M16.6122 100.988C16.6122 98.0832 19.3264 95.7281 22.674 95.7281C26.0216 95.7281 28.7358 98.0832 28.7358 100.988H16.6122Z" fill="#2196F3"/>
<path d="M24.1903 94.2252H21.1594V96.4796C21.1594 96.4796 21.408 97.231 22.6438 97.231C23.8797 97.231 24.1903 96.4796 24.1903 96.4796V94.2252Z" fill="#EF8D3C"/>
<path d="M25.326 93.4737C25.9538 93.4737 26.4626 92.969 26.4626 92.3465C26.4626 91.724 25.9538 91.2193 25.326 91.2193C24.6983 91.2193 24.1895 91.724 24.1895 92.3465C24.1895 92.969 24.6983 93.4737 25.326 93.4737Z" fill="#EF8D3C"/>
<path d="M20.022 93.4737C20.6497 93.4737 21.1586 92.969 21.1586 92.3465C21.1586 91.724 20.6497 91.2193 20.022 91.2193C19.3942 91.2193 18.8854 91.724 18.8854 92.3465C18.8854 92.969 19.3942 93.4737 20.022 93.4737Z" fill="#EF8D3C"/>
<path d="M25.7049 89.8787C25.7049 88.2209 24.3455 88.2134 22.674 88.2134C21.0024 88.2134 19.6431 88.2209 19.6431 89.8787C19.6431 90.1394 19.6431 92.4607 19.6431 92.7222C19.6431 94.3799 21.0024 95.7281 22.674 95.7281C24.3455 95.7281 25.7049 94.3799 25.7049 92.7222C25.7049 92.4615 25.7049 90.1402 25.7049 89.8787Z" fill="#FFB74D"/>
<path d="M22.5081 86.7105C20.6615 86.8751 18.8854 88.1609 18.8854 90.8992V91.9708L19.6431 92.7223V90.4679L24.4244 88.8139L25.7049 90.4679V92.7223L26.4626 91.9708V91.0668C26.4626 89.2527 26.3603 87.9069 24.1895 87.462L23.822 86.7105H22.5081Z" fill="#424242"/>
<path d="M39.683 90.0921C39.683 90.7143 39.1738 91.2193 38.5464 91.2193C37.9182 91.2193 37.4098 90.7143 37.4098 90.0921C37.4098 89.4699 37.9182 88.9649 38.5464 88.9649C39.1738 88.9649 39.683 89.4699 39.683 90.0921ZM29.8325 90.0921C29.8325 89.4699 29.3233 88.9649 28.6959 88.9649C28.0685 88.9649 27.5593 89.4699 27.5593 90.0921C27.5593 90.7143 28.0685 91.2193 28.6959 91.2193C29.3233 91.2193 29.8325 90.7143 29.8325 90.0921Z" fill="#FFA726"/>
<path d="M36.652 96.4795C36.652 96.4795 36.652 99.4854 33.6211 99.4854C30.5902 99.4854 30.5902 96.4795 30.5902 96.4795" fill="#FF9800"/>
<path d="M36.4626 96.4795L33.6212 97.0581L30.7797 96.4795C30.7797 96.4795 24.5284 97.627 24.5284 103.994H42.7139C42.7139 97.651 36.4626 96.4795 36.4626 96.4795Z" fill="#4FC3F7"/>
<path d="M33.6211 99.4854C30.5902 99.4854 30.5902 96.4795 30.5902 96.4795V93.4737H36.652V96.4795C36.652 96.4795 36.652 99.4854 33.6211 99.4854Z" fill="#FF9800"/>
<path d="M38.9252 87.2215C38.9252 82.8036 28.317 84.3449 28.317 87.2215V90.5211C28.317 93.3947 30.691 95.728 33.6211 95.728C36.5505 95.728 38.9252 93.3947 38.9252 90.5204V87.2215Z" fill="#FFB74D"/>
<path d="M33.6211 100.988C35.939 100.988 37.8477 99.2659 38.1281 97.0431C37.4582 96.744 36.9134 96.587 36.6475 96.5223C36.624 98.1613 35.2805 99.4854 33.6211 99.4854C31.9617 99.4854 30.6175 98.1613 30.5948 96.5208C30.3273 96.5855 29.7832 96.741 29.1134 97.0379C29.3907 99.2637 31.3017 100.988 33.6211 100.988Z" fill="#01579B"/>
<path d="M33.6211 81.4502C29.9386 81.4502 27.5593 84.6913 27.5593 87.5912V88.9649L29.0748 90.4678V87.4619L36.0459 85.2075L38.1675 87.4619V90.4678L39.683 88.9649V88.3569C39.683 85.9387 39.0533 83.2447 36.0459 82.6518L35.4389 81.4502H33.6211Z" fill="#795548"/>
<path d="M35.1366 89.7163C35.1366 89.3023 35.476 88.9649 35.8943 88.9649C36.3126 88.9649 36.652 89.3023 36.652 89.7163C36.652 90.1304 36.3126 90.4678 35.8943 90.4678C35.476 90.4678 35.1366 90.1304 35.1366 89.7163ZM30.5902 89.7163C30.5902 90.1304 30.9297 90.4678 31.3479 90.4678C31.7662 90.4678 32.1057 90.1304 32.1057 89.7163C32.1057 89.3023 31.7662 88.9649 31.3479 88.9649C30.9297 88.9649 30.5902 89.3023 30.5902 89.7163Z" fill="#784719"/>
<path d="M38.3155 134.17H29.6846V148.09H38.3155V134.17Z" fill="#FF9800"/>
<path d="M27.9584 128.95C27.9584 129.912 27.1859 130.69 26.2322 130.69C25.2785 130.69 24.506 129.912 24.506 128.95C24.506 127.989 25.2776 127.21 26.2322 127.21C27.1868 127.21 27.9584 127.989 27.9584 128.95ZM43.4941 128.95C43.4941 127.989 42.7216 127.21 41.7679 127.21C40.8142 127.21 40.0417 127.989 40.0417 128.95C40.0417 129.912 40.8142 130.69 41.7679 130.69C42.7216 130.69 43.4941 129.912 43.4941 128.95Z" fill="#FFA726"/>
<path d="M41.7679 123.73C41.7679 117.088 26.2322 119.405 26.2322 123.73V129.82C26.2322 134.145 29.7096 137.65 34 137.65C38.2905 137.65 41.7679 134.145 41.7679 129.82V123.73Z" fill="#FFB74D"/>
<path d="M36.5893 128.95C36.5893 128.471 36.976 128.08 37.4524 128.08C37.9289 128.08 38.3155 128.471 38.3155 128.95C38.3155 129.429 37.9289 129.82 37.4524 129.82C36.976 129.82 36.5893 129.429 36.5893 128.95ZM29.6846 128.95C29.6846 129.429 30.0712 129.82 30.5477 129.82C31.0241 129.82 31.4108 129.429 31.4108 128.95C31.4108 128.471 31.0241 128.08 30.5477 128.08C30.0712 128.08 29.6846 128.471 29.6846 128.95Z" fill="#784719"/>
<path d="M34 115.9C28.7567 115.9 25.369 120.186 25.369 125.47V127.459L27.0952 128.95V124.6L37.4524 121.12L40.9047 124.6V128.95L42.6309 127.434V125.47C42.6309 121.968 41.735 118.496 37.4524 117.64L36.5893 115.9H34Z" fill="#424242"/>
<path d="M41.7678 116.77C41.7678 116.77 40.1495 115.03 34.2157 115.03C28.2828 115.03 26.2321 116.77 26.2321 116.77C26.2321 116.77 25.369 121.99 25.369 125.47C25.369 125.47 29.6845 124.6 34 124.6C38.3154 124.6 42.6309 125.47 42.6309 125.47C42.6309 121.99 41.7678 116.77 41.7678 116.77ZM47.8095 150.7H20.1904C20.1904 141.118 29.6845 139.39 29.6845 139.39L34 147.22L38.3154 139.39C38.3154 139.39 47.8095 141.152 47.8095 150.7Z" fill="#00ACC1"/>
<path d="M27.9583 149.83C29.3883 149.83 30.5476 148.661 30.5476 147.22C30.5476 145.779 29.3883 144.61 27.9583 144.61C26.5283 144.61 25.369 145.779 25.369 147.22C25.369 148.661 26.5283 149.83 27.9583 149.83Z" fill="#263238"/>
<path d="M27.0952 147.22C27.0952 146.739 27.481 146.35 27.9583 146.35C28.4347 146.35 28.8214 146.739 28.8214 147.22C28.8214 147.701 28.4347 148.09 27.9583 148.09C27.481 148.09 27.0952 147.701 27.0952 147.22ZM38.3155 148.96H36.5893V150.7H38.3155V148.96ZM43.494 148.96H41.7678V150.7H43.494V148.96Z" fill="#CFD8DC"/>
<path d="M29.6845 139.39V136.464C28.7515 137.59 28.1378 138.706 28.0023 139.114C27.557 140.464 27.0952 141.859 27.0952 145.48C27.0952 145.961 27.4819 146.35 27.9583 146.35C28.4347 146.35 28.8214 145.961 28.8214 145.48C28.8214 142.141 29.2193 140.939 29.6405 139.665C29.6577 139.613 29.688 139.543 29.7259 139.464L29.6845 139.39Z" fill="#37474F"/>
<path d="M40.8909 144.718C40.7822 141.528 40.0313 139.216 39.9847 139.079C39.4849 137.765 38.9256 136.697 38.3154 135.851V139.39L38.2783 139.458C38.3059 139.527 38.3336 139.597 38.3603 139.665C38.3681 139.688 39.056 141.807 39.1639 144.724C37.1537 145.263 36.5892 147.632 36.5892 148.96L38.3154 148.963C38.3163 148.857 38.3517 146.35 40.0416 146.35C41.7316 146.35 41.767 148.857 41.7678 148.96H43.494C43.494 147.625 42.9235 145.242 40.8909 144.718Z" fill="#37474F"/>
<path opacity="0.3" fill-rule="evenodd" clip-rule="evenodd" d="M98.9393 61.9394C98.3535 62.5251 98.3535 63.4749 98.9393 64.0607C99.5251 64.6465 100.475 64.6465 101.061 64.0607L107.061 58.0607L108.121 57L107.061 55.9394L101.061 49.9393C100.475 49.3536 99.5251 49.3536 98.9393 49.9393C98.3536 50.5251 98.3536 51.4749 98.9393 52.0607L102.379 55.5L63 55.5C62.1716 55.5 61.5 56.1716 61.5 57C61.5 57.8284 62.1716 58.5 63 58.5L102.379 58.5L98.9393 61.9394ZM61.5 94C61.5 93.1716 62.1716 92.5 63 92.5L102.379 92.5L98.9393 89.0607C98.3536 88.4749 98.3536 87.5252 98.9393 86.9394C99.5251 86.3536 100.475 86.3536 101.061 86.9394L107.061 92.9394L108.121 94L107.061 95.0607L101.061 101.061C100.475 101.646 99.5251 101.646 98.9393 101.061C98.3535 100.475 98.3535 99.5251 98.9393 98.9394L102.379 95.5L63 95.5C62.1716 95.5 61.5 94.8284 61.5 94ZM61.5 131C61.5 130.172 62.1716 129.5 63 129.5H102.379L98.9393 126.061C98.3536 125.475 98.3536 124.525 98.9393 123.939C99.5251 123.354 100.475 123.354 101.061 123.939L107.061 129.939L108.121 131L107.061 132.061L101.061 138.061C100.475 138.646 99.5251 138.646 98.9393 138.061C98.3535 137.475 98.3535 136.525 98.9393 135.939L102.379 132.5H63C62.1716 132.5 61.5 131.828 61.5 131Z" fill="url(#paint0_linear)"/>
</g>
<defs>
<linearGradient id="paint0_linear" x1="108" y1="49.5" x2="61" y2="49.5" gradientUnits="userSpaceOnUse">
<stop stop-color="#009CFF"/>
<stop offset="1" stop-color="#009CFF" stop-opacity="0"/>
</linearGradient>
<clipPath id="clip0">
<rect width="200" height="200" fill="white"/>
</clipPath>
<clipPath id="clip1">
<rect x="117" y="44" width="79.798" height="100" fill="white"/>
</clipPath>
<clipPath id="clip2">
<rect x="20" y="37" width="28" height="35" fill="white"/>
</clipPath>
</defs>
</svg>

<svg xmlns="http://www.w3.org/2000/svg" xmlns:xlink="http://www.w3.org/1999/xlink" width="193.5" height="162.32" viewBox="0 0 193.5 162.32"><defs><clipPath id="a" transform="translate(-3.04 -18.04)"><rect width="200" height="200" fill="none"/></clipPath><clipPath id="b" transform="translate(-3.04 -18.04)"><rect x="117" y="44" width="79.8" height="100" fill="none"/></clipPath><clipPath id="c" transform="translate(-3.04 -18.04)"><rect x="20" y="37" width="28" height="35" fill="none"/></clipPath><linearGradient id="d" x1="108" y1="108" x2="61" y2="108" gradientTransform="matrix(1, 0, 0, -1, 0, 202)" gradientUnits="userSpaceOnUse"><stop offset="0" stop-color="#009cff"/><stop offset="1" stop-color="#009cff" stop-opacity="0"/></linearGradient></defs><g clip-path="url(#a)"><path d="M56.42,168.48c54.37,30.27,140.14-.06,133.58-59.7-2.86-26-14.66-40.1-33.1-58.49C119,12.46,67,12.34,25.78,27.38S2.06,138.21,56.42,168.48Z" transform="translate(-3.04 -18.04)" fill="#009cff" opacity="0.1" style="isolation:isolate"/><g clip-path="url(#b)"><path d="M169.29,111.4s-2.48,9.94-12.39,9.94-12.39-9.94-12.39-9.94-27.25,4.94-27.25,32.31h79.28C196.54,116.43,169.29,111.4,169.29,111.4Z" transform="translate(-3.04 -18.04)" fill="#4fc3f7"/><path d="M156.9,126.31c-12.39,0-12.39-14.91-12.39-14.91V96.49h24.78V111.4S169.29,126.31,156.9,126.31Z" transform="translate(-3.04 -18.04)" fill="#ff9800"/><path d="M184.15,81.57a5,5,0,1,1-5-5A5,5,0,0,1,184.15,81.57Zm-44.59,0a5,5,0,1,0-5,5A5,5,0,0,0,139.56,81.57Z" transform="translate(-3.04 -18.04)" fill="#ffa726"/><path d="M179.2,66.66c0-19-44.6-12.36-44.6,0v17.4a22.3,22.3,0,1,0,44.6,0Z" transform="translate(-3.04 -18.04)" fill="#ffb74d"/><path d="M156.9,44.29c-15.05,0-24.78,12.24-24.78,27.34v5.68l5,4.26V69.14l29.73-9.94,9.91,9.94V81.57l4.95-4.33V71.63c0-10-2.57-19.93-14.86-22.37l-2.48-5Z" transform="translate(-3.04 -18.04)" fill="#424242"/><path d="M164.33,81.57a2.48,2.48,0,1,1,2.48,2.49A2.48,2.48,0,0,1,164.33,81.57Zm-19.82,0A2.48,2.48,0,1,0,147,79.09,2.49,2.49,0,0,0,144.51,81.57Z" transform="translate(-3.04 -18.04)" fill="#784719"/><path d="M156.9,126.31c12.39,0,16.71-9.77,17.22-13.49a33.94,33.94,0,0,0-4.83-1.42s-2.48,9.94-12.39,9.94-12.39-9.94-12.39-9.94a32.54,32.54,0,0,0-4.83,1.41C140.18,116.52,144.51,126.31,156.9,126.31Z" transform="translate(-3.04 -18.04)" fill="#01579b"/></g><g clip-path="url(#c)"><path d="M34,66l-4-5.5V55h8v5.5Z" transform="translate(-3.04 -18.04)" fill="#ff9800"/><path d="M41.77,51.65A1.78,1.78,0,1,0,40,49.88,1.75,1.75,0,0,0,41.77,51.65Z" transform="translate(-3.04 -18.04)" fill="#ffa726"/><path d="M26.23,51.65a1.78,1.78,0,1,0-1.72-1.77A1.75,1.75,0,0,0,26.23,51.65Z" transform="translate(-3.04 -18.04)" fill="#ffa726"/><path d="M42,44.37c0-6.95-16-4.58-16,0v6.4a8,8,0,1,0,16,0Z" transform="translate(-3.04 -18.04)" fill="#ffb74d"/><path d="M34,37c-5.49,0-9,4.25-9,9.53v2L26.8,50V45.67L37.6,42.2l3.6,3.47V50L43,48.53v-2c0-3.46-.9-6.93-5.4-7.8L36.7,37Z" transform="translate(-3.04 -18.04)" fill="#ff5722"/><path d="M37.45,50.76a.89.89,0,1,0-.86-.88A.88.88,0,0,0,37.45,50.76Z" transform="translate(-3.04 -18.04)" fill="#784719"/><path d="M30.55,50.76a.89.89,0,1,0-.87-.88A.88.88,0,0,0,30.55,50.76Z" transform="translate(-3.04 -18.04)" fill="#784719"/><path d="M38.38,60,34,60.92,29.62,60S20,61.85,20,72H48C48,61.85,38.38,60,38.38,60Z" transform="translate(-3.04 -18.04)" fill="#cfd8dc"/><path d="M33,63.75,32,72h4l-1-8.25,1-.92L34,61l-2,1.83Z" transform="translate(-3.04 -18.04)" fill="#3f51b5"/></g><path d="M38.51,101c0-2.91,2.71-5.26,6.06-5.26s6.06,2.35,6.06,5.26Z" transform="translate(-3.04 -18.04)" fill="#2196f3"/><path d="M46.08,94.23h-3v2.25s.25.75,1.49.75a1.55,1.55,0,0,0,1.54-.75Z" transform="translate(-3.04 -18.04)" fill="#ef8d3c"/><path d="M47.22,93.47a1.13,1.13,0,1,0-1.14-1.12A1.13,1.13,0,0,0,47.22,93.47Z" transform="translate(-3.04 -18.04)" fill="#ef8d3c"/><path d="M41.92,93.47a1.13,1.13,0,1,0-1.14-1.12A1.13,1.13,0,0,0,41.92,93.47Z" transform="translate(-3.04 -18.04)" fill="#ef8d3c"/><path d="M47.6,89.88c0-1.66-1.36-1.67-3-1.67s-3,0-3,1.67v2.84a3,3,0,0,0,6.06,0Z" transform="translate(-3.04 -18.04)" fill="#ffb74d"/><path d="M44.4,86.71a3.88,3.88,0,0,0-3.62,4.19V92l.76.75V90.47l4.78-1.66,1.28,1.66v2.25l.76-.75v-.9c0-1.82-.11-3.16-2.28-3.61l-.36-.75Z" transform="translate(-3.04 -18.04)" fill="#424242"/><path d="M16.61,101c0-2.91,2.72-5.26,6.06-5.26s6.07,2.35,6.07,5.26Z" transform="translate(-3.04 -18.04)" fill="#2196f3"/><path d="M24.19,94.23h-3v2.25s.25.75,1.48.75,1.55-.75,1.55-.75Z" transform="translate(-3.04 -18.04)" fill="#ef8d3c"/><path d="M25.33,93.47a1.13,1.13,0,1,0-1.14-1.12A1.13,1.13,0,0,0,25.33,93.47Z" transform="translate(-3.04 -18.04)" fill="#ef8d3c"/><path d="M20,93.47a1.13,1.13,0,1,0-1.13-1.12A1.13,1.13,0,0,0,20,93.47Z" transform="translate(-3.04 -18.04)" fill="#ef8d3c"/><path d="M25.7,89.88c0-1.66-1.35-1.67-3-1.67s-3,0-3,1.67v2.84a3,3,0,0,0,6.06,0Z" transform="translate(-3.04 -18.04)" fill="#ffb74d"/><path d="M22.51,86.71a3.87,3.87,0,0,0-3.62,4.19V92l.75.75V90.47l4.78-1.66,1.28,1.66v2.25l.76-.75v-.9c0-1.82-.1-3.16-2.27-3.61l-.37-.75Z" transform="translate(-3.04 -18.04)" fill="#424242"/><path d="M39.68,90.09A1.14,1.14,0,1,1,38.55,89,1.14,1.14,0,0,1,39.68,90.09Zm-9.85,0a1.14,1.14,0,1,0-1.13,1.13A1.14,1.14,0,0,0,29.83,90.09Z" transform="translate(-3.04 -18.04)" fill="#ffa726"/><path d="M36.65,96.48a3,3,0,0,1-6.06,0" transform="translate(-3.04 -18.04)" fill="#ff9800"/><path d="M36.46,96.48l-2.84.58-2.84-.58s-6.25,1.15-6.25,7.51H42.71C42.71,97.65,36.46,96.48,36.46,96.48Z" transform="translate(-3.04 -18.04)" fill="#4fc3f7"/><path d="M33.62,99.49a3,3,0,0,1-3-3v-3h6.06v3A3,3,0,0,1,33.62,99.49Z" transform="translate(-3.04 -18.04)" fill="#ff9800"/><path d="M38.93,87.22c0-4.42-10.61-2.88-10.61,0v3.3a5.31,5.31,0,0,0,10.61,0Z" transform="translate(-3.04 -18.04)" fill="#ffb74d"/><path d="M33.62,101A4.53,4.53,0,0,0,38.13,97a9.64,9.64,0,0,0-1.48-.52,3,3,0,0,1-6.06,0,9.64,9.64,0,0,0-1.48.52A4.54,4.54,0,0,0,33.62,101Z" transform="translate(-3.04 -18.04)" fill="#01579b"/><path d="M33.62,81.45a6.19,6.19,0,0,0-6.06,6.14V89l1.51,1.51v-3l7-2.25,2.12,2.25v3L39.68,89v-.6c0-2.42-.63-5.12-3.63-5.71l-.61-1.2Z" transform="translate(-3.04 -18.04)" fill="#795548"/><path d="M35.14,89.72a.76.76,0,1,1,.75.75A.76.76,0,0,1,35.14,89.72Zm-4.55,0a.76.76,0,1,0,.76-.76A.76.76,0,0,0,30.59,89.72Z" transform="translate(-3.04 -18.04)" fill="#784719"/><path d="M38.32,134.17H29.68v13.92h8.64Z" transform="translate(-3.04 -18.04)" fill="#ff9800"/><path d="M28,129a1.73,1.73,0,1,1-1.73-1.74A1.73,1.73,0,0,1,28,129Zm15.53,0a1.73,1.73,0,1,0-1.72,1.74A1.73,1.73,0,0,0,43.49,129Z" transform="translate(-3.04 -18.04)" fill="#ffa726"/><path d="M41.77,123.73c0-6.64-15.54-4.33-15.54,0v6.09a7.77,7.77,0,1,0,15.54,0Z" transform="translate(-3.04 -18.04)" fill="#ffb74d"/><path d="M36.59,129a.87.87,0,1,1,.86.87A.87.87,0,0,1,36.59,129Zm-6.91,0a.87.87,0,1,0,.87-.87A.87.87,0,0,0,29.68,129Z" transform="translate(-3.04 -18.04)" fill="#784719"/><path d="M34,115.9c-5.24,0-8.63,4.29-8.63,9.57v2L27.1,129V124.6l10.35-3.48,3.45,3.48V129l1.73-1.52v-2c0-3.5-.89-7-5.18-7.83l-.86-1.74Z" transform="translate(-3.04 -18.04)" fill="#424242"/><path d="M41.77,116.77S40.15,115,34.22,115s-8,1.74-8,1.74a67.93,67.93,0,0,0-.86,8.7A50,50,0,0,1,34,124.6a50,50,0,0,1,8.63.87A67.93,67.93,0,0,0,41.77,116.77Zm6,33.93H20.19c0-9.58,9.49-11.31,9.49-11.31L34,147.22l4.32-7.83S47.81,141.15,47.81,150.7Z" transform="translate(-3.04 -18.04)" fill="#00acc1"/><path d="M28,149.83a2.61,2.61,0,1,0-2.59-2.61A2.6,2.6,0,0,0,28,149.83Z" transform="translate(-3.04 -18.04)" fill="#263238"/><path d="M27.1,147.22a.86.86,0,1,1,.86.87A.86.86,0,0,1,27.1,147.22ZM38.32,149H36.59v1.74h1.73Zm5.17,0H41.77v1.74h1.72Z" transform="translate(-3.04 -18.04)" fill="#cfd8dc"/><path d="M29.68,139.39v-2.93A11.2,11.2,0,0,0,28,139.11a17.29,17.29,0,0,0-.9,6.37.86.86,0,1,0,1.72,0,15.48,15.48,0,0,1,.82-5.82l.09-.2Z" transform="translate(-3.04 -18.04)" fill="#37474f"/><path d="M40.89,144.72a21.6,21.6,0,0,0-.91-5.64,14,14,0,0,0-1.66-3.23v3.54l0,.07c0,.07,0,.14.08.2a20.09,20.09,0,0,1,.8,5.06c-2,.54-2.57,2.91-2.57,4.24h1.73c0-.1,0-2.61,1.72-2.61s1.73,2.51,1.73,2.61h1.72C43.49,147.62,42.92,145.24,40.89,144.72Z" transform="translate(-3.04 -18.04)" fill="#37474f"/><path d="M98.94,61.94a1.5,1.5,0,0,0,2.12,2.12l6-6L108.12,57l-1.06-1.06-6-6a1.5,1.5,0,0,0-2.12,2.12l3.44,3.44H63a1.5,1.5,0,0,0,0,3h39.38ZM61.5,94A1.5,1.5,0,0,1,63,92.5h39.38l-3.44-3.44a1.5,1.5,0,0,1,2.12-2.12l6,6L108.12,94l-1.06,1.06-6,6a1.5,1.5,0,0,1-2.12-2.12l3.44-3.44H63A1.5,1.5,0,0,1,61.5,94Zm0,37a1.5,1.5,0,0,1,1.5-1.5h39.38l-3.44-3.44a1.5,1.5,0,0,1,2.12-2.12l6,6,1.06,1.06-1.06,1.06-6,6a1.5,1.5,0,0,1-2.12-2.12l3.44-3.44H63A1.5,1.5,0,0,1,61.5,131Z" transform="translate(-3.04 -18.04)" fill-rule="evenodd" opacity="0.3" fill="url(#d)" style="isolation:isolate"/></g></svg>
